X: 21
T: Madme Recaimers Waltz
N: The "me" in "Madme" is raised; it's clearly an abbreviation of "Madame"
%C: Mr. Gray
%R: waltz
B: Mr. Gray "24 Country Dances for the Year 1803" p.11 #1
S: http://imslp.org/wiki/24_Country_Dances_for_the_Year_1803_(Various)  2013-12-2
Z: 2013 John Chambers <jc:trillian.mit.edu>
M: 3/8
L: 1/16
K: D
(AG) |\
F2F2F2 | G2G2G2 | g2e2c2 |\
d2(f2^g2) | a2e2c2 | d4 (BA) | ^G2EFGE | A4 :|
|: (AB) |\
G2G2G2 | e4 (EG) | F2F2F2 | d4 (af) |\
d2d2 af | e2e2 (ge) | c2ABcA | d4 :|
% - - - - - - - - - - - - - - - - - - - - - - - - -
%%begintext align
%% 1st Cu: sett to the 2d Lady & hands 3 round,
%% the same to the 2d Gen: lead down the
%% middle, up again, Allemand & Swing Corners.
%%endtext

%%sep 1 1 500
%%sep 1 1 500
